Obsidian-SemiLight/actions/16s/dialog-messages.svg

<svg viewBox="0 0 16 16" xmlns="http://www.w3.org/2000/svg"><path d="m2 3v8l3 3v-3h9v-8zm1 1h10v6h-10z" fill="#4d4d4d"/></svg>

<svg xmlns="http://www.w3.org/2000/svg" viewBox="0 0 16 16">
  <defs id="defs3051">
    <style type="text/css" id="current-color-scheme">
      .ColorScheme-Text {
        color:#4d4d4d;
      }
      </style>
  </defs>
 <path style="fill:currentColor;fill-opacity:1;stroke:none" 
     d="M 2 3 L 2 11 L 5 14 L 5 11 L 14 11 L 14 3 L 2 3 z M 3 4 L 13 4 L 13 10 L 3 10 L 3 4 z "
     class="ColorScheme-Text"
     />
</svg>
